X:1
T:The Golden Fleece
M:C
L:1/8
R:March
S:Ira Ford
O:American
Z:Eric Root <eroot:swva.net> tradtunes 2001-04-28
N:Originally from Ira Ford's book Traditional Music of America, this is how I play it nowadays
K:G
(3B,C^C|D>DE>F G>FG>B|Ac3E2A>G|F3CE3B,|D6(3B,C^C|
D>DE>F G>FG>B|Ac3E2A>G|F3DB3A|G6d>^c|=c>cF4d>e|
B>DB4B>c|B2A4B>A|G>ED4d>^c|=c>FA4d>e|B>DB4(3BBB|
